X:1
T:Title
%%score { ( 1 3 ) | ( 2 4 ) }
L:1/8
M:4/4
K:Ab
V:1 treble nm="Grand Piano"
V:3 treble 
V:2 bass 
V:4 bass 
V:1
 z4 z2 z[Q:1/4=82] [CE] | [CE][_C=D][=CE][C=E] [CF] [CA]2 [C_E] | %2
 [CF]>[CG] [CF][A,C] [CE]2 z [CE] | [CE][_C=D]E=E FAcA | [GB]6 Bc | %5
 [Fd][Fd][Fd][Fd] [Fd] [DF]2 [Fd] | [=Ec][GB][FA][EG] [CFA]2 z [CFA] | %7
 [=DFB][DFA][B,EG][A,DF] ccBB |[M:3/4] [CA]6 |[M:1/4] [_GB][GA] | %10
[M:4/4] [Fd]2 z z/ D/ D2 [FB][FA] | [Ec]2 C>C C2 [CA][Ec] | cBB=A B [Ge]2 d | c2 z2 z4 |] %14
V:2
 z4 z2 z [A,,A,] | [A,,A,][A,,A,][A,,A,][A,,A,] [A,,A,] [A,,F,]2 [A,,E,] | %2
 [A,,F,]>[A,,G,] [A,,F,][A,,C,] [A,,E,]2 z [A,,A,] | %3
 [A,,A,][A,,A,][A,C][G,B,C] [F,A,C][F,C][F,A,F][F,CF] | [E,D]6 [D,B,][C,=A,] | %5
 [B,,B,][B,,B,][B,,B,][B,,B,] [B,,B,] [B,,B,]2 [B,,A,] | [C,G,][C,C][C,C][C,C] F,2 z F, | %7
 B,,B,,B,,B,, [E,A,E][E,A,E][E,G,D][E,D] |[M:3/4] [A,,E,]6 |[M:1/4] [A,C][A,C] | %10
[M:4/4] [D,D]2 [D,A,D]>[D,A,] [D,A,]2 [D,A,][D,A,] | %11
 [A,,A,]2 [A,,A,]>[A,,A,] [A,,A,]2 [A,,E,][A,,A,] | %12
 [E,A,E][E,G,D][E,G,D][E,_G,C] [E,=G,D] [E,B,]2[K:treble] F | E2[K:bass] z2 z4 |] %14
V:3
 x8 | x8 | x8 | x8 | z4 z2 F2 | x8 | x8 | x8 |[M:3/4] x6 |[M:1/4] x2 |[M:4/4] z2 F4 z2 | z2 E4 z2 | %12
 x8 | z A,G,G- G<B- B<[CA] |] %14
V:4
 x8 | x8 | x8 | x8 | x8 | x8 | x8 | x8 |[M:3/4] x6 |[M:1/4] x2 |[M:4/4] x8 | x8 | x7[K:treble] x | %13
 z[K:bass] E,E,[E,B,D]- [E,B,D]<[E,G,D]- [E,G,D]<[A,,A,] |] %14

